images/6603712.svg

<?xml version="1.0" encoding="UTF-8"?>
<svg xmlns="http://www.w3.org/2000/svg" xmlns:xlink="http://www.w3.org/1999/xlink" width="300pt" height="300pt" viewBox="0 0 300 300" version="1.1">
<defs>
<g>
<symbol overflow="visible" id="glyph0-0">
<path style="stroke:none;" d="M 0.453125 1.59375 L 0.453125 -6.34375 L 4.953125 -6.34375 L 4.953125 1.59375 Z M 0.953125 1.09375 L 4.453125 1.09375 L 4.453125 -5.84375 L 0.953125 -5.84375 Z M 0.953125 1.09375 "/>
</symbol>
<symbol overflow="visible" id="glyph0-1">
<path style="stroke:none;" d="M 3.546875 -5.953125 C 2.898438 -5.953125 2.382812 -5.710938 2 -5.234375 C 1.625 -4.753906 1.4375 -4.101562 1.4375 -3.28125 C 1.4375 -2.445312 1.625 -1.789062 2 -1.3125 C 2.382812 -0.832031 2.898438 -0.59375 3.546875 -0.59375 C 4.191406 -0.59375 4.703125 -0.832031 5.078125 -1.3125 C 5.453125 -1.789062 5.640625 -2.445312 5.640625 -3.28125 C 5.640625 -4.101562 5.453125 -4.753906 5.078125 -5.234375 C 4.703125 -5.710938 4.191406 -5.953125 3.546875 -5.953125 Z M 3.546875 -6.6875 C 4.460938 -6.6875 5.195312 -6.375 5.75 -5.75 C 6.300781 -5.132812 6.578125 -4.3125 6.578125 -3.28125 C 6.578125 -2.238281 6.300781 -1.410156 5.75 -0.796875 C 5.195312 -0.179688 4.460938 0.125 3.546875 0.125 C 2.617188 0.125 1.878906 -0.179688 1.328125 -0.796875 C 0.773438 -1.410156 0.5 -2.238281 0.5 -3.28125 C 0.5 -4.3125 0.773438 -5.132812 1.328125 -5.75 C 1.878906 -6.375 2.617188 -6.6875 3.546875 -6.6875 Z M 3.546875 -6.6875 "/>
</symbol>
<symbol overflow="visible" id="glyph0-2">
<path style="stroke:none;" d="M 0.890625 -6.5625 L 2.078125 -6.5625 L 4.984375 -1.078125 L 4.984375 -6.5625 L 5.84375 -6.5625 L 5.84375 0 L 4.65625 0 L 1.75 -5.484375 L 1.75 0 L 0.890625 0 Z M 0.890625 -6.5625 "/>
</symbol>
<symbol overflow="visible" id="glyph0-3">
<path style="stroke:none;" d="M 0.890625 -6.5625 L 1.765625 -6.5625 L 1.765625 -3.875 L 5 -3.875 L 5 -6.5625 L 5.890625 -6.5625 L 5.890625 0 L 5 0 L 5 -3.125 L 1.765625 -3.125 L 1.765625 0 L 0.890625 0 Z M 0.890625 -6.5625 "/>
</symbol>
</g>
</defs>
<g id="surface38301">
<rect x="0" y="0" width="300" height="300" style="fill:rgb(100%,100%,100%);fill-opacity:1;stroke:none;"/>
<path style="fill:none;stroke-width:1.2;stroke-linecap:butt;stroke-linejoin:miter;stroke:rgb(0%,0%,0%);stroke-opacity:1;stroke-miterlimit:10;" d="M 264.75 163.566406 L 244.976562 154.003906 "/>
<path style="fill:none;stroke-width:1.2;stroke-linecap:butt;stroke-linejoin:miter;stroke:rgb(0%,0%,0%);stroke-opacity:1;stroke-miterlimit:10;" d="M 244.976562 154.003906 L 226.808594 166.34375 "/>
<path style="fill:none;stroke-width:1.2;stroke-linecap:butt;stroke-linejoin:miter;stroke:rgb(0%,0%,0%);stroke-opacity:1;stroke-miterlimit:10;" d="M 226.808594 166.34375 L 207.035156 156.78125 "/>
<path style="fill:none;stroke-width:1.2;stroke-linecap:butt;stroke-linejoin:miter;stroke:rgb(0%,0%,0%);stroke-opacity:1;stroke-miterlimit:10;" d="M 207.035156 156.78125 L 188.867188 169.125 "/>
<path style=" stroke:none;fill-rule:nonzero;fill:rgb(0%,0%,0%);fill-opacity:1;" d="M 169.09375 159.5625 L 187.179688 172.613281 L 190.554688 165.636719 Z M 169.09375 159.5625 "/>
<path style="fill:none;stroke-width:1.2;stroke-linecap:butt;stroke-linejoin:miter;stroke:rgb(0%,0%,0%);stroke-opacity:1;stroke-miterlimit:10;" d="M 169.09375 159.5625 L 167.488281 137.65625 "/>
<path style="fill:none;stroke-width:1.2;stroke-linecap:butt;stroke-linejoin:miter;stroke:rgb(0%,0%,0%);stroke-opacity:1;stroke-miterlimit:10;" d="M 169.09375 159.5625 L 150.925781 171.90625 "/>
<path style="fill:none;stroke-width:1.2;stroke-linecap:butt;stroke-linejoin:miter;stroke:rgb(0%,0%,0%);stroke-opacity:1;stroke-miterlimit:10;" d="M 167.488281 137.65625 L 185.65625 125.3125 "/>
<path style="fill:none;stroke-width:1.2;stroke-linecap:butt;stroke-linejoin:miter;stroke:rgb(0%,0%,0%);stroke-opacity:1;stroke-miterlimit:10;" d="M 184.53125 127.640625 L 194.417969 132.421875 "/>
<path style="fill:none;stroke-width:1.2;stroke-linecap:butt;stroke-linejoin:miter;stroke:rgb(100%,0%,0%);stroke-opacity:1;stroke-miterlimit:10;" d="M 194.417969 132.421875 L 204.304688 137.203125 "/>
<path style="fill:none;stroke-width:1.2;stroke-linecap:butt;stroke-linejoin:miter;stroke:rgb(0%,0%,0%);stroke-opacity:1;stroke-miterlimit:10;" d="M 186.78125 122.988281 L 196.667969 127.769531 "/>
<path style="fill:none;stroke-width:1.2;stroke-linecap:butt;stroke-linejoin:miter;stroke:rgb(100%,0%,0%);stroke-opacity:1;stroke-miterlimit:10;" d="M 196.667969 127.769531 L 206.554688 132.550781 "/>
<path style="fill:none;stroke-width:1.2;stroke-linecap:butt;stroke-linejoin:miter;stroke:rgb(0%,0%,0%);stroke-opacity:1;stroke-miterlimit:10;" d="M 185.65625 125.3125 L 184.855469 114.363281 "/>
<path style="fill:none;stroke-width:1.2;stroke-linecap:butt;stroke-linejoin:miter;stroke:rgb(0%,0%,100%);stroke-opacity:1;stroke-miterlimit:10;" d="M 184.855469 114.363281 L 184.050781 103.410156 "/>
<path style=" stroke:none;fill-rule:nonzero;fill:rgb(100%,100%,100%);fill-opacity:1;" d="M 201.429688 129.378906 L 209.429688 129.378906 L 209.429688 140.378906 L 201.429688 140.378906 Z M 201.429688 129.378906 "/>
<g style="fill:rgb(100%,0%,0%);fill-opacity:1;">
  <use xlink:href="#glyph0-1" x="201.429688" y="138.041992"/>
</g>
<path style="fill:none;stroke-width:1.2;stroke-linecap:butt;stroke-linejoin:miter;stroke:rgb(0%,0%,100%);stroke-opacity:1;stroke-miterlimit:10;" d="M 184.050781 103.410156 L 193.136719 97.238281 "/>
<path style="fill:none;stroke-width:1.2;stroke-linecap:butt;stroke-linejoin:miter;stroke:rgb(100%,0%,0%);stroke-opacity:1;stroke-miterlimit:10;" d="M 193.136719 97.238281 L 202.21875 91.066406 "/>
<path style=" stroke:none;fill-rule:nonzero;fill:rgb(100%,100%,100%);fill-opacity:1;" d="M 177.050781 97.910156 L 191.050781 97.910156 L 191.050781 108.910156 L 177.050781 108.910156 Z M 177.050781 97.910156 "/>
<g style="fill:rgb(0%,0%,100%);fill-opacity:1;">
  <use xlink:href="#glyph0-2" x="177.050781" y="106.573242"/>
  <use xlink:href="#glyph0-3" x="184.02832" y="106.573242"/>
</g>
<path style=" stroke:none;fill-rule:nonzero;fill:rgb(100%,100%,100%);fill-opacity:1;" d="M 195.21875 85.566406 L 210.21875 85.566406 L 210.21875 96.566406 L 195.21875 96.566406 Z M 195.21875 85.566406 "/>
<g style="fill:rgb(100%,0%,0%);fill-opacity:1;">
  <use xlink:href="#glyph0-1" x="195.21875" y="94.229492"/>
  <use xlink:href="#glyph0-3" x="202.560547" y="94.229492"/>
</g>
<path style="fill:none;stroke-width:1.2;stroke-linecap:butt;stroke-linejoin:miter;stroke:rgb(0%,0%,0%);stroke-opacity:1;stroke-miterlimit:10;" d="M 148.347656 172.09375 L 149.152344 183.046875 "/>
<path style="fill:none;stroke-width:1.2;stroke-linecap:butt;stroke-linejoin:miter;stroke:rgb(100%,0%,0%);stroke-opacity:1;stroke-miterlimit:10;" d="M 149.152344 183.046875 L 149.953125 194 "/>
<path style="fill:none;stroke-width:1.2;stroke-linecap:butt;stroke-linejoin:miter;stroke:rgb(0%,0%,0%);stroke-opacity:1;stroke-miterlimit:10;" d="M 153.503906 171.714844 L 154.304688 182.667969 "/>
<path style="fill:none;stroke-width:1.2;stroke-linecap:butt;stroke-linejoin:miter;stroke:rgb(100%,0%,0%);stroke-opacity:1;stroke-miterlimit:10;" d="M 154.304688 182.667969 L 155.109375 193.621094 "/>
<path style="fill:none;stroke-width:1.2;stroke-linecap:butt;stroke-linejoin:miter;stroke:rgb(0%,0%,0%);stroke-opacity:1;stroke-miterlimit:10;" d="M 150.925781 171.90625 L 141.039062 167.125 "/>
<path style="fill:none;stroke-width:1.2;stroke-linecap:butt;stroke-linejoin:miter;stroke:rgb(0%,0%,100%);stroke-opacity:1;stroke-miterlimit:10;" d="M 141.039062 167.125 L 131.152344 162.34375 "/>
<path style=" stroke:none;fill-rule:nonzero;fill:rgb(100%,100%,100%);fill-opacity:1;" d="M 148.53125 188.3125 L 156.53125 188.3125 L 156.53125 199.3125 L 148.53125 199.3125 Z M 148.53125 188.3125 "/>
<g style="fill:rgb(100%,0%,0%);fill-opacity:1;">
  <use xlink:href="#glyph0-1" x="148.53125" y="196.975586"/>
</g>
<path style="fill:none;stroke-width:1;stroke-linecap:butt;stroke-linejoin:miter;stroke:rgb(0%,0%,0%);stroke-opacity:1;stroke-miterlimit:10;" d="M 112.984375 174.6875 L 112.984375 174.6875 M 115.722656 173.457031 L 115.136719 172.59375 M 118.457031 172.226562 L 117.285156 170.503906 M 121.195312 171 L 119.4375 168.410156 M 123.929688 169.769531 L 121.585938 166.320312 M 126.667969 168.539062 L 123.738281 164.226562 M 129.40625 167.3125 L 125.890625 162.136719 M 132.140625 166.082031 L 128.039062 160.046875 M 133.332031 165.550781 L 128.972656 159.136719 "/>
<path style=" stroke:none;fill-rule:nonzero;fill:rgb(100%,100%,100%);fill-opacity:1;" d="M 124.152344 156.84375 L 138.152344 156.84375 L 138.152344 167.84375 L 124.152344 167.84375 Z M 124.152344 156.84375 "/>
<g style="fill:rgb(0%,0%,100%);fill-opacity:1;">
  <use xlink:href="#glyph0-2" x="124.152344" y="165.506836"/>
  <use xlink:href="#glyph0-3" x="131.129883" y="165.506836"/>
</g>
<path style="fill:none;stroke-width:1.2;stroke-linecap:butt;stroke-linejoin:miter;stroke:rgb(0%,0%,0%);stroke-opacity:1;stroke-miterlimit:10;" d="M 112.984375 174.6875 L 114.589844 196.589844 "/>
<path style="fill:none;stroke-width:1.2;stroke-linecap:butt;stroke-linejoin:miter;stroke:rgb(0%,0%,0%);stroke-opacity:1;stroke-miterlimit:10;" d="M 112.984375 174.6875 L 93.210938 165.121094 "/>
<path style="fill:none;stroke-width:1.2;stroke-linecap:butt;stroke-linejoin:miter;stroke:rgb(0%,0%,0%);stroke-opacity:1;stroke-miterlimit:10;" d="M 114.589844 196.589844 L 134.363281 206.152344 "/>
<path style="fill:none;stroke-width:1.2;stroke-linecap:butt;stroke-linejoin:miter;stroke:rgb(0%,0%,0%);stroke-opacity:1;stroke-miterlimit:10;" d="M 114.589844 196.589844 L 96.421875 208.933594 "/>
<path style="fill:none;stroke-width:1.2;stroke-linecap:butt;stroke-linejoin:miter;stroke:rgb(0%,0%,0%);stroke-opacity:1;stroke-miterlimit:10;" d="M 91.757812 162.984375 L 82.675781 169.15625 "/>
<path style="fill:none;stroke-width:1.2;stroke-linecap:butt;stroke-linejoin:miter;stroke:rgb(100%,0%,0%);stroke-opacity:1;stroke-miterlimit:10;" d="M 82.675781 169.15625 L 73.589844 175.328125 "/>
<path style="fill:none;stroke-width:1.2;stroke-linecap:butt;stroke-linejoin:miter;stroke:rgb(0%,0%,0%);stroke-opacity:1;stroke-miterlimit:10;" d="M 94.664062 167.261719 L 85.578125 173.433594 "/>
<path style="fill:none;stroke-width:1.2;stroke-linecap:butt;stroke-linejoin:miter;stroke:rgb(100%,0%,0%);stroke-opacity:1;stroke-miterlimit:10;" d="M 85.578125 173.433594 L 76.496094 179.601562 "/>
<path style="fill:none;stroke-width:1.2;stroke-linecap:butt;stroke-linejoin:miter;stroke:rgb(0%,0%,0%);stroke-opacity:1;stroke-miterlimit:10;" d="M 93.210938 165.121094 L 92.410156 154.171875 "/>
<path style="fill:none;stroke-width:1.2;stroke-linecap:butt;stroke-linejoin:miter;stroke:rgb(0%,0%,100%);stroke-opacity:1;stroke-miterlimit:10;" d="M 92.410156 154.171875 L 91.605469 143.21875 "/>
<path style=" stroke:none;fill-rule:nonzero;fill:rgb(100%,100%,100%);fill-opacity:1;" d="M 67.042969 171.964844 L 75.042969 171.964844 L 75.042969 182.964844 L 67.042969 182.964844 Z M 67.042969 171.964844 "/>
<g style="fill:rgb(100%,0%,0%);fill-opacity:1;">
  <use xlink:href="#glyph0-1" x="67.042969" y="180.62793"/>
</g>
<path style="fill:none;stroke-width:1.2;stroke-linecap:butt;stroke-linejoin:miter;stroke:rgb(0%,0%,100%);stroke-opacity:1;stroke-miterlimit:10;" d="M 91.605469 143.21875 L 99.996094 136.128906 "/>
<path style="fill:none;stroke-width:1.2;stroke-linecap:butt;stroke-linejoin:miter;stroke:rgb(0%,0%,0%);stroke-opacity:1;stroke-miterlimit:10;" d="M 99.996094 136.128906 L 108.382812 129.042969 "/>
<path style="fill:none;stroke-width:1.2;stroke-linecap:butt;stroke-linejoin:miter;stroke:rgb(0%,0%,0%);stroke-opacity:1;stroke-miterlimit:10;" d="M 72.941406 131.640625 L 82.273438 137.429688 "/>
<path style="fill:none;stroke-width:1.2;stroke-linecap:butt;stroke-linejoin:miter;stroke:rgb(0%,0%,100%);stroke-opacity:1;stroke-miterlimit:10;" d="M 82.273438 137.429688 L 91.605469 143.21875 "/>
<path style=" stroke:none;fill-rule:nonzero;fill:rgb(100%,100%,100%);fill-opacity:1;" d="M 88.605469 137.71875 L 95.605469 137.71875 L 95.605469 148.71875 L 88.605469 148.71875 Z M 88.605469 137.71875 "/>
<g style="fill:rgb(0%,0%,100%);fill-opacity:1;">
  <use xlink:href="#glyph0-2" x="88.605469" y="146.381836"/>
</g>
<path style="fill:none;stroke-width:1.2;stroke-linecap:butt;stroke-linejoin:miter;stroke:rgb(0%,0%,0%);stroke-opacity:1;stroke-miterlimit:10;" d="M 108.382812 129.042969 L 100.089844 108.707031 "/>
<path style="fill:none;stroke-width:1.2;stroke-linecap:butt;stroke-linejoin:miter;stroke:rgb(0%,0%,0%);stroke-opacity:1;stroke-miterlimit:10;" d="M 100.089844 108.707031 L 78.183594 110.3125 "/>
<path style="fill:none;stroke-width:1.2;stroke-linecap:butt;stroke-linejoin:miter;stroke:rgb(0%,0%,0%);stroke-opacity:1;stroke-miterlimit:10;" d="M 78.183594 110.3125 L 72.941406 131.640625 "/>
<path style="fill:none;stroke-width:1;stroke-linecap:butt;stroke-linejoin:miter;stroke:rgb(0%,0%,0%);stroke-opacity:1;stroke-miterlimit:10;" d="M 72.941406 131.640625 L 72.941406 131.640625 M 70.007812 132.273438 L 70.402344 133.238281 M 67.074219 132.90625 L 67.863281 134.835938 M 64.144531 133.539062 L 65.324219 136.4375 M 61.210938 134.171875 L 62.785156 138.035156 M 58.277344 134.804688 L 60.246094 139.632812 M 55.347656 135.4375 L 57.707031 141.230469 M 52.414062 136.070312 L 55.171875 142.832031 M 51.140625 136.347656 L 54.066406 143.523438 "/>
<path style="fill:none;stroke-width:1.2;stroke-linecap:butt;stroke-linejoin:miter;stroke:rgb(0%,0%,0%);stroke-opacity:1;stroke-miterlimit:10;" d="M 52.601562 139.9375 L 43.925781 133.203125 "/>
<path style="fill:none;stroke-width:1.2;stroke-linecap:butt;stroke-linejoin:miter;stroke:rgb(100%,0%,0%);stroke-opacity:1;stroke-miterlimit:10;" d="M 43.925781 133.203125 L 35.25 126.472656 "/>
<path style=" stroke:none;fill-rule:nonzero;fill:rgb(100%,100%,100%);fill-opacity:1;" d="M 20.25 120.972656 L 35.25 120.972656 L 35.25 131.972656 L 20.25 131.972656 Z M 20.25 120.972656 "/>
<g style="fill:rgb(100%,0%,0%);fill-opacity:1;">
  <use xlink:href="#glyph0-3" x="20.25" y="129.635742"/>
  <use xlink:href="#glyph0-1" x="27.264648" y="129.635742"/>
</g>
</g>
</svg>

<svg xmlns="http://www.w3.org/2000/svg" xmlns:xlink="http://www.w3.org/1999/xlink" width="300pt" height="300pt" viewBox="0 0 300 300"><defs><symbol overflow="visible"><path d="M.453 1.594v-7.938h4.5v7.938zm.5-.5h3.5v-6.938h-3.5zm0 0"/></symbol><symbol overflow="visible" id="a"><path d="M3.547-5.953c-.65 0-1.164.242-1.547.72-.375.48-.563 1.13-.563 1.952 0 .835.188 1.49.563 1.967.383.48.898.72 1.547.72.644 0 1.156-.24 1.53-.72.376-.476.564-1.132.564-1.968 0-.822-.187-1.474-.562-1.954-.375-.477-.887-.72-1.53-.72zm0-.734c.914 0 1.648.312 2.203.937.55.617.828 1.438.828 2.47 0 1.042-.277 1.87-.828 2.483-.555.617-1.29.922-2.203.922-.93 0-1.668-.305-2.22-.922C.774-1.41.5-2.237.5-3.28c0-1.033.273-1.853.828-2.47.55-.625 1.29-.938 2.22-.938zm0 0"/></symbol><symbol overflow="visible" id="b"><path d="M.89-6.563H2.08l2.906 5.485v-5.484h.86V0H4.656L1.75-5.484V0H.89zm0 0"/></symbol><symbol overflow="visible" id="c"><path d="M.89-6.563h.876v2.688H5v-2.688h.89V0H5v-3.125H1.766V0H.89zm0 0"/></symbol></defs><g><path fill="#fff" d="M0 0h300v300H0z"/><path d="M264.75 163.566l-19.773-9.562M244.977 154.004l-18.168 12.34M226.81 166.344l-19.775-9.563M207.035 156.78l-18.168 12.345" stroke-width="1.2" stroke="#000" stroke-miterlimit="10" fill="none"/><path d="M169.094 159.563l18.086 13.05 3.375-6.976zm0 0"/><path d="M169.094 159.563l-1.606-21.907M169.094 159.563l-18.168 12.343M167.488 137.656l18.168-12.344M184.53 127.64l9.888 4.782" stroke-width="1.2" stroke="#000" stroke-miterlimit="10" fill="none"/><path d="M194.418 132.422l9.887 4.78" stroke-width="1.2" stroke="#f00" stroke-miterlimit="10" fill="none"/><path d="M186.78 122.988l9.888 4.782" stroke-width="1.2" stroke="#000" stroke-miterlimit="10" fill="none"/><path d="M196.668 127.77l9.887 4.78" stroke-width="1.2" stroke="#f00" stroke-miterlimit="10" fill="none"/><path d="M185.656 125.313l-.8-10.95" stroke-width="1.2" stroke="#000" stroke-miterlimit="10" fill="none"/><path d="M184.855 114.363l-.804-10.953" stroke-width="1.2" stroke="#00f" stroke-miterlimit="10" fill="none"/><path d="M201.43 129.38h8v11h-8zm0 0" fill="#fff"/><use xlink:href="#a" x="201.43" y="138.042" fill="#f00"/><path d="M184.05 103.41l9.087-6.172" stroke-width="1.2" stroke="#00f" stroke-miterlimit="10" fill="none"/><path d="M193.137 97.238l9.082-6.172" stroke-width="1.2" stroke="#f00" stroke-miterlimit="10" fill="none"/><path d="M177.05 97.91h14v11h-14zm0 0" fill="#fff"/><g fill="#00f"><use xlink:href="#b" x="177.051" y="106.573"/><use xlink:href="#c" x="184.028" y="106.573"/></g><path d="M195.22 85.566h15v11h-15zm0 0" fill="#fff"/><g fill="#f00"><use xlink:href="#a" x="195.219" y="94.229"/><use xlink:href="#c" x="202.561" y="94.229"/></g><path d="M148.348 172.094l.804 10.953" stroke-width="1.2" stroke="#000" stroke-miterlimit="10" fill="none"/><path d="M149.152 183.047l.8 10.953" stroke-width="1.2" stroke="#f00" stroke-miterlimit="10" fill="none"/><path d="M153.504 171.715l.8 10.953" stroke-width="1.2" stroke="#000" stroke-miterlimit="10" fill="none"/><path d="M154.305 182.668l.804 10.953" stroke-width="1.2" stroke="#f00" stroke-miterlimit="10" fill="none"/><path d="M150.926 171.906l-9.887-4.78" stroke-width="1.2" stroke="#000" stroke-miterlimit="10" fill="none"/><path d="M141.04 167.125l-9.888-4.78" stroke-width="1.2" stroke="#00f" stroke-miterlimit="10" fill="none"/><path d="M148.53 188.313h8v11h-8zm0 0" fill="#fff"/><use xlink:href="#a" x="148.531" y="196.976" fill="#f00"/><path d="M112.984 174.688m2.74-1.23l-.587-.864m3.32-.367l-1.172-1.723m3.91.496l-1.757-2.59m4.492 1.36l-2.344-3.45m5.082 2.22l-2.93-4.313m5.668 3.085l-3.515-5.175m6.25 3.945l-4.1-6.035m5.292 5.504l-4.36-6.413" stroke="#000" stroke-miterlimit="10" fill="none"/><path d="M124.152 156.844h14v11h-14zm0 0" fill="#fff"/><g fill="#00f"><use xlink:href="#b" x="124.152" y="165.507"/><use xlink:href="#c" x="131.13" y="165.507"/></g><path d="M112.984 174.688l1.606 21.902M112.984 174.688L93.21 165.12M114.59 196.59l19.773 9.562M114.59 196.59l-18.168 12.344M91.758 162.984l-9.082 6.172" stroke-width="1.2" stroke="#000" stroke-miterlimit="10" fill="none"/><path d="M82.676 169.156l-9.086 6.172" stroke-width="1.2" stroke="#f00" stroke-miterlimit="10" fill="none"/><path d="M94.664 167.262l-9.086 6.172" stroke-width="1.2" stroke="#000" stroke-miterlimit="10" fill="none"/><path d="M85.578 173.434l-9.082 6.168" stroke-width="1.2" stroke="#f00" stroke-miterlimit="10" fill="none"/><path d="M93.21 165.12l-.8-10.948" stroke-width="1.2" stroke="#000" stroke-miterlimit="10" fill="none"/><path d="M92.41 154.172l-.805-10.953" stroke-width="1.2" stroke="#00f" stroke-miterlimit="10" fill="none"/><path d="M67.043 171.965h8v11h-8zm0 0" fill="#fff"/><use xlink:href="#a" x="67.043" y="180.628" fill="#f00"/><path d="M91.605 143.22l8.39-7.09" stroke-width="1.2" stroke="#00f" stroke-miterlimit="10" fill="none"/><path d="M99.996 136.13l8.387-7.087M72.94 131.64l9.333 5.79" stroke-width="1.2" stroke="#000" stroke-miterlimit="10" fill="none"/><path d="M82.273 137.43l9.332 5.79" stroke-width="1.2" stroke="#00f" stroke-miterlimit="10" fill="none"/><path d="M88.605 137.72h7v11h-7zm0 0" fill="#fff"/><use xlink:href="#b" x="88.605" y="146.382" fill="#00f"/><path d="M108.383 129.043l-8.293-20.336M100.09 108.707l-21.906 1.606M78.184 110.313L72.94 131.64" stroke-width="1.2" stroke="#000" stroke-miterlimit="10" fill="none"/><path d="M72.94 131.64m-2.932.633l.394.965m-3.328-.332l.79 1.93m-3.72-1.297l1.18 2.898m-4.113-2.266l1.575 3.863m-4.508-3.23l1.97 4.828m-4.9-4.196l2.36 5.793m-5.293-5.16l2.758 6.762m-4.03-6.484l2.924 7.175" stroke="#000" stroke-miterlimit="10" fill="none"/><path d="M52.602 139.938l-8.676-6.735" stroke-width="1.2" stroke="#000" stroke-miterlimit="10" fill="none"/><path d="M43.926 133.203l-8.676-6.73" stroke-width="1.2" stroke="#f00" stroke-miterlimit="10" fill="none"/><path d="M20.25 120.973h15v11h-15zm0 0" fill="#fff"/><g fill="#f00"><use xlink:href="#c" x="20.25" y="129.636"/><use xlink:href="#a" x="27.265" y="129.636"/></g></g></svg>
